img/logo.svg

<svg width="112" height="54" viewBox="0 0 112 54" fill="none" xmlns="http://www.w3.org/2000/svg">
<path d="M29.2537 24.3977C30.1884 24.4731 31.7414 24.4731 33.3697 23.8849C35.5558 23.0856 36.6112 21.683 37.7872 20.1447C37.7872 20.1447 40.4256 16.661 40.7724 9.90451C40.7874 9.6632 40.8025 9.21076 40.5764 8.69799C40.1844 7.73279 39.2949 7.18986 38.8727 6.94856C37.5912 6.17941 36.2343 6.08892 35.601 6.07384C33.1134 6.04368 26.3439 5.90795 17.2526 6.104C16.6344 6.13417 15.6092 6.25482 14.5086 6.7525C12.9255 7.46132 12.1113 8.51702 11.7947 8.98454C9.20151 16.8419 6.59322 24.6993 4 32.5567C7.2566 32.5567 10.5132 32.5567 13.7547 32.5567C15.7599 26.3281 17.7501 20.0844 19.7553 13.8558C19.8306 13.69 20.0116 13.4034 20.3433 13.147C20.5845 12.9811 20.8106 12.8906 20.9162 12.8454C21.1273 12.77 21.3233 12.7398 21.474 12.7247C24.0522 12.7247 26.6454 12.7247 29.2236 12.7247C29.3894 12.7549 29.6156 12.8303 29.8116 12.966C30.8669 13.7352 29.9623 15.7712 29.8417 16.0124C29.6306 16.4951 29.2839 17.2642 28.4245 17.7016C27.927 17.958 27.339 18.0635 27.2485 18.0786C26.766 18.1691 26.374 18.154 26.2383 18.154C26.2383 18.154 24.987 18.1239 23.1023 18.35C21.278 18.5763 19.107 19.9034 18.6999 21.6529C18.519 22.4371 18.7452 23.1459 18.9562 23.5984C19.0316 23.7341 19.2126 24.0056 19.5292 24.2016C19.906 24.458 20.298 24.4882 20.4488 24.4882C23.4039 24.4731 26.3288 24.4279 29.2537 24.3977Z" fill="#E30613"/>
<path d="M63.1766 18.8175C63.1162 17.415 63.071 15.9369 61.7443 14.9416C60.6889 14.1574 59.3772 14.0669 58.744 14.0669C55.1255 14.0669 51.5071 14.0669 47.9038 14.0669C46.7881 14.1423 45.009 14.4138 43.441 15.4845C41.7825 16.6005 41.2398 18.1841 40.1392 21.3512C39.6417 22.7839 39.4004 24.5786 38.918 28.183C38.8124 28.9522 38.6918 29.9627 39.3401 30.9279C39.521 31.1993 40.3352 32.2851 41.7373 32.5114C41.8881 32.5415 42.0238 32.5415 42.1142 32.5415C47.8736 32.5415 53.648 32.5415 59.4074 32.5567C59.7692 30.958 60.1311 29.3594 60.4929 27.7607C57.5378 27.7607 54.5978 27.7607 51.6428 27.7607C51.3714 27.7758 50.9794 27.7607 50.497 27.7004C49.6828 27.5948 48.2958 27.4139 47.6625 26.5241C47.5268 26.3431 47.2554 25.8756 47.3911 25.1064C53.2711 25.1215 57.6434 25.1064 59.2868 25.1064C59.4677 25.1064 59.92 25.1064 60.4175 24.9104C60.8849 24.7294 61.5483 24.3071 62.2719 22.6331C62.7544 21.5472 63.2519 20.4312 63.1766 18.8175ZM55.3065 20.2804C54.9898 20.6574 54.5074 20.7329 54.3868 20.7479C52.2911 20.763 50.1954 20.763 48.1148 20.7781C48.1902 20.4463 48.4314 19.7375 49.1853 19.1493C49.7884 18.6818 50.4065 18.3952 50.9644 18.3952C52.1102 18.3952 53.256 18.3952 54.4018 18.3952C54.5074 18.4254 55.0502 18.5461 55.3517 18.9834C55.608 19.3604 55.6382 19.8732 55.3065 20.2804Z" fill="black"/>
<path d="M73.4135 8.47168C73.1274 9.78376 72.856 11.0958 72.5692 12.4079C74.9514 12.4079 77.3187 12.4079 79.7009 12.4079C80.0172 11.0958 80.3187 9.78376 80.6357 8.47168C78.2234 8.47168 75.8111 8.47168 73.4135 8.47168Z" fill="black"/>
<path d="M85.5206 14.1121C84.6462 19.662 83.7563 25.1969 82.8819 30.7469C82.7914 31.0334 82.6259 31.4406 82.264 31.8026C81.5705 32.4963 80.5902 32.5567 80.168 32.5567C76.3385 32.5567 72.5089 32.5567 68.6794 32.5567C67.5489 32.5567 66.8099 32.3756 66.2369 32.0891C65.7243 31.8327 65.4079 31.5462 65.3175 31.4557C64.1415 30.3698 64.0661 28.741 64.051 28.2584C64.7295 23.5229 65.423 18.8025 66.1015 14.0669C68.3631 14.082 70.6394 14.097 72.9009 14.1121C72.2831 18.0333 71.68 21.9695 71.0615 25.8906C71.0769 26.0113 71.1071 26.1772 71.1975 26.3431C71.6043 27.0218 72.7957 27.0971 73.4892 27.1424C74.1526 27.1876 75.8714 27.2933 76.5348 26.4336C76.5797 26.3733 76.6099 26.3129 76.64 26.2677C76.64 26.2677 76.7157 26.132 76.7459 25.9661C76.7908 25.77 77.5902 20.8384 78.6757 14.1272C80.9822 14.1121 83.2591 14.1121 85.5206 14.1121Z" fill="black"/>
<path d="M100.522 14.0669C100.145 16.4799 99.7834 18.8929 99.4062 21.3059C97.9139 21.3059 96.4209 21.3059 94.9434 21.3059C95.2905 18.8929 95.6369 16.4799 95.984 14.0669C93.496 14.0669 91.0086 14.0669 88.5059 14.0669C87.5557 20.2201 86.6062 26.3883 85.656 32.5415C88.2043 32.5415 90.7674 32.5415 93.3151 32.5415C93.6622 30.1285 94.0086 27.7155 94.3557 25.3025C95.8332 25.3025 97.3108 25.3025 98.7883 25.3025C98.4111 27.7155 98.0492 30.1285 97.6726 32.5415C100.22 32.5415 102.783 32.5415 105.332 32.5415C106.221 26.3883 107.095 20.2201 107.985 14.0669C105.513 14.0669 103.01 14.0669 100.522 14.0669Z" fill="black"/>
<path d="M108 34.3213H4.01508V48.0001H108V34.3213Z" fill="#E30613"/>
<path d="M17.7501 37.1716C17.3732 36.8398 16.8605 36.8548 16.7852 36.8548C14.207 36.8548 11.6439 36.8548 9.06581 36.8548C8.88488 37.6089 8.68889 38.3479 8.50797 39.102C10.4529 39.102 12.3827 39.0869 14.3276 39.0869C14.403 39.0869 14.6292 39.0718 14.8252 39.1924C15.0815 39.3734 15.1569 39.7505 14.9458 39.9315C14.8704 40.0069 14.7498 40.037 14.6744 40.0521C12.9707 40.0521 11.267 40.037 9.56334 40.037C9.3975 40.0521 8.96027 40.0823 8.5532 40.3537C8.28181 40.5347 8.13104 40.7308 8.05566 40.8514C7.63351 42.5255 7.36213 43.8074 7.28674 44.3955C7.27166 44.5313 7.25659 44.7575 7.40736 44.9837C7.61843 45.2854 8.0255 45.406 8.23658 45.4513C10.6187 45.4513 13.0009 45.4513 15.3679 45.4513C15.4735 45.4361 15.9107 45.3909 16.1972 45.0892C16.3178 44.9686 16.3781 44.8329 16.4082 44.7424C16.9661 42.5556 17.5089 40.3688 18.0667 38.182C18.0667 38.1669 18.2325 37.5939 17.7501 37.1716ZM14.3125 42.6914C14.2975 42.7668 14.2372 42.9327 14.0562 43.0834C13.815 43.2795 13.5135 43.2946 13.4381 43.3097C12.5485 43.3097 11.6741 43.3097 10.7845 43.3097C10.8298 43.0684 10.875 42.812 10.9052 42.5707C10.9504 42.45 11.0409 42.2691 11.2369 42.0881C11.6289 41.7412 12.1565 41.711 12.2772 41.711C13.031 41.711 13.7999 41.711 14.5538 41.711C14.4633 42.0278 14.3879 42.3596 14.3125 42.6914Z" fill="white"/>
<path d="M27.0224 41.0024C27.1882 40.9723 27.4747 40.8818 27.7461 40.731C29.0879 39.9467 29.3744 37.8052 28.3642 37.1114C28.1984 36.9908 27.9722 36.9003 27.6556 36.8701C25.3187 36.8701 22.9968 36.8701 20.6599 36.8701C20.4639 36.8701 20.3433 36.9154 20.2679 36.9455C19.9061 37.0964 19.7704 37.4432 19.7101 37.5789C19.695 37.6242 19.6799 37.6695 19.6648 37.6996C19.0618 39.8563 18.4587 41.9978 17.8707 44.1544C17.8557 44.1997 17.8406 44.2751 17.8255 44.3656C17.7803 44.6521 17.6747 45.2704 18.0064 45.4363C18.0517 45.4514 18.112 45.4816 18.2024 45.4816C18.6397 45.4816 21.7002 45.4967 25.8765 45.4816C26.3288 45.5268 26.6605 45.4363 26.9017 45.3458C28.2436 44.818 28.7411 42.7971 27.8214 41.6358C27.5651 41.3192 27.2485 41.123 27.0224 41.0024ZM24.1125 43.2043C24.0221 43.2495 23.9316 43.2797 23.811 43.3099C22.8008 43.3099 21.7907 43.3099 20.7956 43.3099C20.7956 43.0987 20.8257 42.3145 21.4891 41.8621C21.5796 41.8017 21.6701 41.7414 21.8057 41.6962C22.8159 41.6962 23.8261 41.6962 24.8211 41.6962C24.8211 41.8319 24.8664 42.8122 24.1125 43.2043ZM24.7457 40.0824C24.6704 40.1277 24.5799 40.1579 24.4744 40.1881C23.5697 40.1881 22.6802 40.1881 21.7756 40.1881C21.7756 39.992 21.8057 39.2982 22.3937 38.8911C22.4691 38.8458 22.5596 38.7854 22.6802 38.7402C23.5848 38.7402 24.4744 38.7402 25.379 38.7402C25.379 38.8609 25.4091 39.7356 24.7457 40.0824Z" fill="white"/>
<path d="M29.7513 36.855C33.0681 36.855 36.385 36.855 39.702 36.855C39.521 37.7297 39.325 38.6195 39.1441 39.4942C37.9832 39.4942 36.8223 39.4942 35.6613 39.4942C35.3297 41.485 35.013 43.4757 34.6813 45.4665C33.5355 45.4665 32.3897 45.4665 31.2438 45.4665C31.6207 43.4757 31.9977 41.485 32.3746 39.4942C31.3644 39.4942 30.3543 39.4942 29.3442 39.4942C29.4648 38.6195 29.6156 37.7448 29.7513 36.855Z" fill="white"/>
<path d="M48.2204 37.6241C47.361 36.9303 46.1548 36.9002 44.8733 36.8701C43.6671 36.8399 42.265 36.8248 41.089 37.5789C39.5512 38.5742 39.4004 40.2784 39.2949 41.681C39.1893 42.978 39.0989 43.9734 39.898 44.7123C40.7271 45.4815 42.0388 45.4664 43.8933 45.4664C45.7025 45.4513 46.9087 45.4513 47.8284 44.7123C48.6576 44.0488 48.7631 43.1891 48.944 41.681C49.125 39.9316 49.3059 38.5139 48.2204 37.6241ZM45.7477 41.6207C45.6573 42.5708 45.612 42.9478 45.3407 43.1589C45.2502 43.2344 45.1597 43.2646 45.0844 43.2796C44.3305 43.2947 43.5767 43.2947 42.8228 43.3098C42.7625 43.2796 42.6871 43.2193 42.6117 43.1137C42.4007 42.8272 42.4157 42.4501 42.5062 41.6358C42.672 40.022 42.8228 39.7506 43.0339 39.5998C43.1244 39.5395 43.2148 39.5093 43.2902 39.4942C44.0139 39.4942 44.7225 39.4942 45.4462 39.4942C45.5065 39.5093 45.5819 39.5395 45.6573 39.6148C45.8684 39.8109 45.8834 40.1729 45.7477 41.6207Z" fill="white"/>
<path d="M50.9493 36.8701L49.2758 44.3504C49.2607 44.4108 49.2004 44.8632 49.5924 45.1648C49.7884 45.3156 50.0145 45.376 50.1201 45.391C53.9495 45.4212 57.7791 45.4363 61.6086 45.4665C61.7443 45.4363 62.0006 45.3609 62.2268 45.1799C62.6338 44.8632 62.6941 44.4711 62.7092 44.3504C63.2067 41.8469 63.7043 39.3585 64.2018 36.855H60.7492C60.312 38.891 59.8748 40.9119 59.4526 42.9479C58.9852 42.9479 58.5028 42.9479 58.0354 42.9479C58.4726 40.9269 58.9099 38.891 59.3471 36.8701H55.9095C55.4572 38.891 55.0049 40.9269 54.5526 42.9479C54.0551 42.9479 53.5576 42.9479 53.06 42.9479C53.4972 40.9119 53.9345 38.891 54.3566 36.855C53.2108 36.855 52.08 36.8701 50.9493 36.8701Z" fill="white"/>
<path d="M64.7898 36.855C64.232 39.7204 63.6741 42.601 63.1313 45.4665C64.247 45.4665 65.3627 45.4665 66.4782 45.4665C66.9908 42.601 67.5188 39.7204 68.0314 36.855C66.9305 36.855 65.8603 36.855 64.7898 36.855Z" fill="white"/>
<path d="M74.288 36.855C73.0369 38.1822 71.8006 39.5244 70.5489 40.8515C70.4585 40.9269 70.3532 41.0476 70.3532 41.1833C70.3378 41.3342 70.4437 41.4548 70.4738 41.5001C70.6849 41.7564 71.8308 43.3098 73.3988 45.4665C72.2228 45.4665 71.0468 45.4665 69.8554 45.4665C68.5138 43.3098 67.5335 41.7414 67.368 41.5001C67.3378 41.4548 67.2621 41.3492 67.2621 41.1833C67.2621 41.0174 67.368 40.8968 67.3981 40.8515C67.5791 40.6253 68.9058 39.0418 70.7452 36.855C71.9514 36.855 73.1274 36.855 74.288 36.855Z" fill="white"/>
<path d="M81.9021 37.6241C81.0424 36.9303 79.8363 36.9002 78.5551 36.8701C77.3489 36.8399 75.9464 36.8248 74.7704 37.5789C73.2326 38.5742 73.0818 40.2784 72.9766 41.681C72.8708 42.978 72.7803 43.9734 73.5797 44.7123C74.4086 45.4815 75.7206 45.4664 77.5748 45.4664C79.384 45.4513 80.5901 45.4513 81.5101 44.7123C82.3391 44.0488 82.4449 43.1891 82.6258 41.681C82.8068 39.9316 82.9877 38.5139 81.9021 37.6241ZM79.4295 41.6207C79.3391 42.5708 79.2935 42.9478 79.0221 43.1589C78.9317 43.2344 78.8412 43.2646 78.7661 43.2796C78.0123 43.2947 77.2584 43.2947 76.5046 43.3098C76.4443 43.2796 76.3686 43.2193 76.2935 43.1137C76.0824 42.8272 76.0972 42.4501 76.1877 41.6358C76.3538 40.022 76.5046 39.7506 76.7157 39.5998C76.8061 39.5395 76.8966 39.5093 76.9717 39.4942C77.6954 39.4942 78.4043 39.4942 79.128 39.4942C79.1883 39.5093 79.2634 39.5395 79.3391 39.6148C79.5501 39.7959 79.5649 40.1578 79.4295 41.6207Z" fill="white"/>
<path d="M82.1581 45.4665C83.7864 42.8272 85.4301 40.1729 87.0584 37.5336C87.1034 37.4733 87.1489 37.398 87.224 37.3376C87.6461 36.9304 88.2794 36.8701 88.536 36.855C88.7471 36.855 88.9581 36.855 89.184 36.855C89.3951 36.8701 90.2394 36.9757 90.6468 37.5336C90.6917 37.6091 90.752 37.6845 90.7821 37.79C91.6418 40.3539 92.5009 42.9026 93.3606 45.4665C92.1994 45.4665 91.0388 45.4514 89.8929 45.4514C89.4708 43.5813 89.0486 41.7112 88.6111 39.8562C87.4652 41.7263 86.3348 43.5963 85.1889 45.4815C84.1637 45.4665 83.1686 45.4665 82.1581 45.4665Z" fill="white"/>
<path d="M104.397 37.1716C104.02 36.8398 103.507 36.8548 103.432 36.8548C100.854 36.8548 98.2905 36.8548 95.7126 36.8548C95.5317 37.6089 95.3354 38.3479 95.1545 39.102C97.0997 39.102 99.0295 39.0869 100.974 39.0869C101.05 39.0869 101.276 39.0718 101.472 39.1924C101.728 39.3734 101.804 39.7505 101.593 39.9315C101.517 40.0069 101.396 40.037 101.321 40.0521C99.6172 40.0521 97.9139 40.037 96.2099 40.037C96.0443 40.0521 95.6068 40.0823 95.2 40.3537C94.9286 40.5347 94.7779 40.7308 94.7022 40.8514C94.28 42.5255 94.0086 43.8074 93.9335 44.3955C93.9182 44.5313 93.9034 44.7575 94.0542 44.9837C94.2652 45.2854 94.672 45.406 94.8831 45.4513C97.2652 45.4513 99.6474 45.4513 102.015 45.4513C102.12 45.4361 102.558 45.3909 102.844 45.0892C102.964 44.9686 103.025 44.8329 103.055 44.7424C103.613 42.5556 104.156 40.3688 104.713 38.182C104.713 38.1669 104.879 37.5939 104.397 37.1716ZM100.944 42.6914C100.929 42.7668 100.869 42.9327 100.688 43.0834C100.447 43.2795 100.145 43.2946 100.07 43.3097C99.1803 43.3097 98.3058 43.3097 97.416 43.3097C97.4615 43.0684 97.5065 42.812 97.5366 42.5707C97.5822 42.45 97.6726 42.2691 97.8683 42.0881C98.2603 41.7412 98.7883 41.711 98.9089 41.711C99.6628 41.711 100.431 41.711 101.185 41.711C101.11 42.0278 101.034 42.3596 100.944 42.6914Z" fill="white"/>
</svg>

<svg xmlns="http://www.w3.org/2000/svg" width="112" height="54" fill="none"><path fill="#E30613" d="M29.254 24.398c.934.075 2.487.075 4.116-.513 2.186-.8 3.241-2.202 4.417-3.74 0 0 2.639-3.484 2.985-10.24a2.51 2.51 0 0 0-.196-1.207c-.392-.965-1.281-1.508-1.703-1.75-1.282-.769-2.639-.86-3.272-.874-2.488-.03-9.257-.166-18.348.03a7.59 7.59 0 0 0-2.744.649c-1.584.708-2.398 1.764-2.714 2.232C9.202 16.842 6.593 24.699 4 32.557h9.755c2.005-6.229 3.995-12.473 6-18.701.076-.166.257-.453.588-.709.241-.166.468-.256.573-.302a2.34 2.34 0 0 1 .558-.12h7.75c.165.03.392.105.588.241 1.055.77.15 2.805.03 3.046-.211.483-.558 1.252-1.418 1.69-.497.256-1.085.361-1.175.377-.483.09-.875.075-1.01.075 0 0-1.252-.03-3.137.196-1.824.226-3.995 1.553-4.402 3.303-.181.784.045 1.493.256 1.945.076.136.257.408.573.604.377.256.769.286.92.286 2.955-.015 5.88-.06 8.805-.09Z"/><path fill="#000" d="M63.177 18.817c-.06-1.402-.106-2.88-1.433-3.875-1.055-.785-2.367-.875-3-.875h-10.84c-1.116.075-2.895.347-4.463 1.418-1.659 1.116-2.201 2.7-3.302 5.866-.497 1.433-.739 3.228-1.221 6.832-.106.77-.226 1.78.422 2.745.181.271.995 1.357 2.397 1.583.151.03.287.03.377.03 5.76 0 11.534 0 17.293.016l1.086-4.796h-8.85c-.272.015-.664 0-1.146-.06-.814-.106-2.201-.287-2.834-1.177-.136-.18-.408-.648-.272-1.418 5.88.015 10.252 0 11.896 0 .18 0 .633 0 1.13-.196.468-.18 1.131-.603 1.855-2.277.482-1.086.98-2.202.905-3.816Zm-7.87 1.463c-.317.377-.8.453-.92.468-2.096.015-4.192.015-6.272.03.075-.332.316-1.04 1.07-1.629.603-.467 1.221-.754 1.78-.754h3.437c.105.03.648.151.95.588.256.377.286.89-.045 1.297ZM73.413 8.472c-.286 1.312-.557 2.624-.844 3.936h7.132c.316-1.312.618-2.624.935-3.936h-7.222ZM85.52 14.112c-.874 5.55-1.764 11.085-2.638 16.635-.09.286-.256.694-.618 1.056-.694.693-1.674.754-2.096.754H68.679c-1.13 0-1.87-.181-2.442-.468a3.705 3.705 0 0 1-.92-.633c-1.175-1.086-1.25-2.715-1.266-3.198.678-4.735 1.372-9.456 2.05-14.191l6.8.045c-.618 3.921-1.221 7.857-1.84 11.779.016.12.046.286.136.452.407.679 1.599.754 2.292.8.664.045 2.382.15 3.046-.71.045-.06.075-.12.105-.165 0 0 .076-.136.106-.302.045-.196.844-5.128 1.93-11.839 2.306-.015 4.583-.015 6.845-.015ZM100.522 14.067c-.377 2.413-.739 4.826-1.116 7.239h-4.463l1.041-7.24h-7.478l-2.85 18.475h7.66l1.04-7.238h4.432c-.377 2.412-.739 4.825-1.115 7.238h7.659c.889-6.153 1.763-12.32 2.653-18.474h-7.463Z"/><path fill="#E30613" d="M108 34.321H4.015v13.68H108V34.32Z"/><path fill="#fff" d="M17.75 37.172c-.377-.332-.89-.317-.965-.317h-7.72c-.18.754-.376 1.493-.557 2.247 1.945 0 3.875-.015 5.82-.015.075 0 .301-.015.497.105.257.181.332.559.12.74a.542.542 0 0 1-.27.12c-1.704 0-3.408-.015-5.112-.015-.165.015-.603.045-1.01.317a1.676 1.676 0 0 0-.497.497c-.422 1.675-.694 2.956-.77 3.544a.842.842 0 0 0 .121.589c.211.301.618.422.83.467h7.13c.106-.015.544-.06.83-.362.12-.12.181-.256.211-.347.558-2.186 1.1-4.373 1.659-6.56 0-.015.166-.588-.317-1.01Zm-3.438 5.52a.723.723 0 0 1-.256.391c-.241.197-.542.212-.618.227h-2.654c.046-.242.091-.498.121-.74.045-.12.136-.3.332-.482.392-.347.92-.377 1.04-.377h2.277c-.09.317-.166.649-.242.98ZM27.022 41.002c.166-.03.453-.12.724-.271 1.342-.784 1.628-2.926.618-3.62-.166-.12-.392-.21-.708-.24H20.66a.98.98 0 0 0-.392.075c-.362.15-.498.497-.558.633-.015.045-.03.09-.045.12-.603 2.157-1.206 4.299-1.794 6.455-.015.046-.03.121-.045.212-.046.286-.151.904.18 1.07.046.015.106.046.196.046.438 0 3.498.015 7.674 0 .453.045.784-.046 1.026-.136 1.342-.528 1.84-2.549.92-3.71a2.567 2.567 0 0 0-.8-.634Zm-2.91 2.202a1.41 1.41 0 0 1-.301.106h-3.015c0-.211.03-.995.693-1.448.09-.06.181-.12.317-.166h3.015c0 .136.045 1.116-.709 1.508Zm.634-3.122a1.13 1.13 0 0 1-.272.106h-2.698c0-.196.03-.89.618-1.297.075-.045.166-.106.286-.15h2.699c0 .12.03.995-.633 1.341ZM29.751 36.855h9.951c-.181.875-.377 1.765-.558 2.64h-3.483c-.331 1.99-.648 3.98-.98 5.972h-3.437l1.13-5.973h-3.03c.12-.874.272-1.75.407-2.639ZM48.22 37.624c-.859-.694-2.065-.724-3.347-.754-1.206-.03-2.608-.045-3.784.709-1.538.995-1.689 2.7-1.794 4.102-.106 1.297-.196 2.292.603 3.031.83.77 2.14.754 3.995.754 1.81-.015 3.016-.015 3.935-.754.83-.663.935-1.523 1.116-3.031.181-1.75.362-3.167-.724-4.057Zm-2.472 3.997c-.09.95-.136 1.327-.407 1.538a.558.558 0 0 1-.257.12c-.754.016-1.507.016-2.261.03a.608.608 0 0 1-.211-.195c-.211-.287-.196-.664-.106-1.478.166-1.614.317-1.885.528-2.036.09-.06.18-.09.256-.106h2.156a.44.44 0 0 1 .211.12c.211.197.226.559.09 2.007ZM50.95 36.87l-1.674 7.48a.849.849 0 0 0 .316.815c.196.15.422.211.528.226 3.83.03 7.66.045 11.489.076.135-.03.392-.106.618-.287.407-.317.467-.709.482-.83l1.493-7.495h-3.453c-.437 2.036-.874 4.057-1.296 6.093h-1.418c.438-2.021.875-4.057 1.312-6.078H55.91c-.452 2.021-.904 4.057-1.356 6.078H53.06c.437-2.036.874-4.057 1.297-6.093-1.146 0-2.277.015-3.408.015ZM64.79 36.855c-.558 2.865-1.116 5.746-1.659 8.612h3.347c.513-2.866 1.04-5.747 1.553-8.612H64.79Z"/><path fill="#fff" d="M74.288 36.855c-1.251 1.327-2.487 2.67-3.74 3.997-.09.075-.195.196-.195.331-.015.151.09.272.12.317.212.256 1.358 1.81 2.926 3.967h-3.544c-1.341-2.157-2.322-3.726-2.487-3.967-.03-.045-.106-.15-.106-.317 0-.166.106-.286.136-.331.181-.227 1.508-1.81 3.347-3.997h3.543Z"/><path fill="#fff" d="M81.902 37.624c-.86-.694-2.066-.724-3.347-.754-1.206-.03-2.609-.045-3.785.709-1.537.995-1.688 2.7-1.793 4.102-.106 1.297-.197 2.292.603 3.031.829.77 2.14.754 3.995.754 1.809-.015 3.015-.015 3.935-.754.83-.663.935-1.523 1.116-3.031.18-1.75.362-3.167-.724-4.057Zm-2.472 3.997c-.09.95-.137 1.327-.408 1.538a.557.557 0 0 1-.256.12c-.754.016-1.508.016-2.261.03a.606.606 0 0 1-.212-.195c-.21-.287-.196-.664-.105-1.478.166-1.614.317-1.885.528-2.036.09-.06.18-.09.256-.106h2.156c.06.015.135.045.211.12.211.182.226.544.09 2.007ZM82.158 45.467c1.628-2.64 3.272-5.294 4.9-7.933.045-.06.09-.136.166-.196.422-.408 1.055-.468 1.312-.483h.648c.211.015 1.055.12 1.463.679.045.075.105.15.135.256.86 2.564 1.719 5.113 2.579 7.677-1.162 0-2.322-.016-3.468-.016a597.46 597.46 0 0 0-1.282-5.595c-1.146 1.87-2.276 3.74-3.422 5.625-1.025-.014-2.02-.014-3.03-.014ZM104.397 37.172c-.377-.332-.89-.317-.965-.317h-7.72c-.18.754-.377 1.493-.558 2.247 1.946 0 3.876-.015 5.82-.015.076 0 .302-.015.498.105.256.181.332.559.121.74a.547.547 0 0 1-.272.12c-1.704 0-3.407-.015-5.111-.015-.166.015-.603.045-1.01.317a1.682 1.682 0 0 0-.498.497c-.422 1.675-.693 2.956-.769 3.544a.84.84 0 0 0 .121.589c.211.301.618.422.83.467h7.131c.105-.015.543-.06.829-.362a.893.893 0 0 0 .211-.347c.558-2.186 1.101-4.373 1.658-6.56 0-.015.166-.588-.316-1.01Zm-3.453 5.52a.722.722 0 0 1-.256.391c-.241.197-.543.212-.618.227h-2.654c.046-.242.09-.498.12-.74.046-.12.137-.3.332-.482.392-.347.92-.377 1.04-.377h2.277c-.075.317-.151.649-.241.98Z"/></svg>
